inst/assets/svg/wi-night-alt-lightning.svg

<?xml version="1.0" encoding="UTF-8"?>
<svg xmlns="http://www.w3.org/2000/svg" xmlns:xlink="http://www.w3.org/1999/xlink" width="30pt" height="30pt" viewBox="0 0 30 30" version="1.1">
<g id="surface626">
<path style=" stroke:none;fill-rule:nonzero;fill:rgb(0%,0%,0%);fill-opacity:1;" d="M 4.121094 16.910156 C 4.121094 18.238281 4.578125 19.390625 5.511719 20.339844 C 6.441406 21.289063 7.570313 21.808594 8.910156 21.871094 C 9.019531 21.871094 9.078125 21.808594 9.078125 21.699219 L 9.078125 20.328125 C 9.078125 20.210938 9.019531 20.148438 8.910156 20.148438 C 8.039063 20.078125 7.308594 19.738281 6.71875 19.109375 C 6.128906 18.488281 5.828125 17.75 5.828125 16.898438 C 5.828125 16.058594 6.109375 15.328125 6.679688 14.710938 C 7.25 14.089844 7.941406 13.738281 8.78125 13.671875 L 9.308594 13.601563 C 9.441406 13.601563 9.511719 13.539063 9.511719 13.429688 L 9.578125 12.910156 C 9.691406 11.828125 10.140625 10.921875 10.949219 10.199219 C 11.761719 9.46875 12.710938 9.109375 13.800781 9.109375 C 14.890625 9.109375 15.839844 9.46875 16.648438 10.199219 C 17.460938 10.921875 17.921875 11.828125 18.039063 12.921875 L 18.109375 13.5 C 18.109375 13.621094 18.171875 13.679688 18.289063 13.679688 L 19.898438 13.679688 C 20.808594 13.679688 21.578125 14 22.21875 14.628906 C 22.859375 15.261719 23.179688 16.019531 23.179688 16.910156 C 23.179688 17.761719 22.878906 18.5 22.289063 19.121094 C 21.699219 19.738281 20.96875 20.089844 20.101563 20.160156 C 19.96875 20.160156 19.898438 20.21875 19.898438 20.339844 L 19.898438 21.710938 C 19.898438 21.820313 19.96875 21.878906 20.101563 21.878906 C 21.429688 21.839844 22.558594 21.328125 23.480469 20.371094 C 24.398438 19.410156 24.859375 18.261719 24.859375 16.921875 C 24.859375 16.03125 24.628906 15.199219 24.179688 14.441406 C 24.980469 13.71875 25.5 12.859375 25.730469 11.859375 L 25.878906 11.140625 C 25.890625 11.128906 25.890625 11.109375 25.890625 11.070313 C 25.890625 11 25.839844 10.941406 25.730469 10.910156 L 25.148438 10.738281 C 24.578125 10.578125 24.101563 10.300781 23.699219 9.921875 C 23.300781 9.53125 23.019531 9.121094 22.851563 8.691406 C 22.679688 8.261719 22.601563 7.820313 22.601563 7.371094 C 22.601563 7.128906 22.628906 6.859375 22.691406 6.578125 L 22.828125 5.960938 C 22.859375 5.871094 22.808594 5.789063 22.691406 5.738281 L 21.898438 5.5 C 21.460938 5.390625 21.050781 5.339844 20.648438 5.339844 C 20.289063 5.339844 19.921875 5.378906 19.53125 5.46875 C 19.148438 5.558594 18.75 5.691406 18.339844 5.878906 C 17.929688 6.058594 17.53125 6.328125 17.140625 6.679688 C 16.75 7.03125 16.421875 7.429688 16.140625 7.898438 C 15.429688 7.601563 14.660156 7.449219 13.808594 7.449219 C 12.398438 7.449219 11.148438 7.890625 10.058594 8.761719 C 8.96875 9.628906 8.269531 10.75 7.960938 12.109375 C 6.859375 12.371094 5.949219 12.949219 5.230469 13.851563 C 4.480469 14.738281 4.121094 15.761719 4.121094 16.910156 Z M 11.789063 21.558594 C 11.738281 21.699219 11.789063 21.78125 11.929688 21.78125 L 14.089844 21.78125 L 12.78125 25.921875 L 13.078125 25.921875 L 17.25 20.328125 C 17.289063 20.289063 17.300781 20.238281 17.28125 20.191406 C 17.261719 20.140625 17.21875 20.121094 17.148438 20.121094 L 14.949219 20.121094 L 17.261719 15.910156 C 17.328125 15.769531 17.28125 15.691406 17.121094 15.691406 L 14.179688 15.691406 C 14.101563 15.691406 14.03125 15.738281 13.960938 15.828125 Z M 17.601563 8.808594 C 17.929688 8.238281 18.371094 7.808594 18.929688 7.511719 C 19.480469 7.210938 20.058594 7.058594 20.648438 7.058594 C 20.78125 7.058594 20.871094 7.070313 20.921875 7.078125 L 20.921875 7.390625 C 20.921875 8.351563 21.179688 9.261719 21.699219 10.121094 C 22.21875 10.980469 22.941406 11.628906 23.871094 12.078125 C 23.710938 12.449219 23.460938 12.808594 23.121094 13.148438 C 22.199219 12.359375 21.128906 11.96875 19.898438 11.96875 L 19.578125 11.96875 C 19.289063 10.710938 18.628906 9.660156 17.601563 8.808594 Z M 17.601563 8.808594 "/>
</g>
</svg>

<?xml version="1.0" encoding="utf-8"?>
<!-- Generator: Adobe Illustrator 22.0.1, SVG Export Plug-In . SVG Version: 6.00 Build 0)  -->
<svg version="1.1" id="Layer_1" xmlns="http://www.w3.org/2000/svg" xmlns:xlink="http://www.w3.org/1999/xlink" x="0px" y="0px"
	 viewBox="0 0 30 30" style="enable-background:new 0 0 30 30;" xml:space="preserve">
<path d="M4.12,16.91c0,1.33,0.46,2.48,1.39,3.43s2.06,1.47,3.4,1.53c0.11,0,0.17-0.06,0.17-0.17v-1.37c0-0.12-0.06-0.18-0.17-0.18
	c-0.87-0.07-1.6-0.41-2.19-1.04c-0.59-0.62-0.89-1.36-0.89-2.21c0-0.84,0.28-1.57,0.85-2.19c0.57-0.62,1.26-0.97,2.1-1.04l0.53-0.07
	c0.13,0,0.2-0.06,0.2-0.17l0.07-0.52c0.11-1.08,0.56-1.99,1.37-2.71c0.81-0.73,1.76-1.09,2.85-1.09c1.09,0,2.04,0.36,2.85,1.09
	c0.81,0.72,1.27,1.63,1.39,2.72l0.07,0.58c0,0.12,0.06,0.18,0.18,0.18h1.61c0.91,0,1.68,0.32,2.32,0.95
	c0.64,0.63,0.96,1.39,0.96,2.28c0,0.85-0.3,1.59-0.89,2.21c-0.59,0.62-1.32,0.97-2.19,1.04c-0.13,0-0.2,0.06-0.2,0.18v1.37
	c0,0.11,0.07,0.17,0.2,0.17c1.33-0.04,2.46-0.55,3.38-1.51s1.38-2.11,1.38-3.45c0-0.89-0.23-1.72-0.68-2.48
	c0.8-0.72,1.32-1.58,1.55-2.58l0.15-0.72c0.01-0.01,0.01-0.03,0.01-0.07c0-0.07-0.05-0.13-0.16-0.16l-0.58-0.17
	c-0.57-0.16-1.05-0.44-1.45-0.82c-0.4-0.39-0.68-0.8-0.85-1.23c-0.17-0.43-0.25-0.87-0.25-1.32c0-0.24,0.03-0.51,0.09-0.79
	l0.14-0.62c0.03-0.09-0.02-0.17-0.14-0.22l-0.79-0.24c-0.44-0.11-0.85-0.16-1.25-0.16c-0.36,0-0.73,0.04-1.12,0.13
	c-0.38,0.09-0.78,0.22-1.19,0.41c-0.41,0.18-0.81,0.45-1.2,0.8c-0.39,0.35-0.72,0.75-1,1.22c-0.71-0.3-1.48-0.45-2.33-0.45
	c-1.41,0-2.66,0.44-3.75,1.31c-1.09,0.87-1.79,1.99-2.1,3.35c-1.1,0.26-2.01,0.84-2.73,1.74C4.48,14.74,4.12,15.76,4.12,16.91z
	 M11.79,21.56c-0.05,0.14,0,0.22,0.14,0.22h2.16l-1.31,4.14h0.3l4.17-5.59c0.04-0.04,0.05-0.09,0.03-0.14
	c-0.02-0.05-0.06-0.07-0.13-0.07h-2.2l2.31-4.21c0.07-0.14,0.02-0.22-0.14-0.22h-2.94c-0.08,0-0.15,0.05-0.22,0.14L11.79,21.56z
	 M17.6,8.81c0.33-0.57,0.77-1,1.33-1.3c0.55-0.3,1.13-0.45,1.72-0.45c0.13,0,0.22,0.01,0.27,0.02v0.31c0,0.96,0.26,1.87,0.78,2.73
	c0.52,0.86,1.24,1.51,2.17,1.96c-0.16,0.37-0.41,0.73-0.75,1.07c-0.92-0.79-1.99-1.18-3.22-1.18h-0.32
	C19.29,10.71,18.63,9.66,17.6,8.81z"/>
</svg>
